X:0969
M:3/4
L:1/8
Q:1/4=100
K:G
c2|d2 e2 B2 |c4    dA      | B2  dB`AG     |{G}F4
d2|D2 E2 F2 |A2 B2 c2      | B2  dB`AG     |   A2 GFED|
   GF`GA`Bc |d2 g2 c2      | Bd  G2 A2     |   Bc d2 |]

